X:94
T:Columbine Hornpipe
C:Mark Klan
N:Written 1999 Arranged for Mandolin by Mike Stangeland
R:bluegrass
L:1/8
Q:1/4=215
M:4/4
K:G
z8 |: "G"DE GB AG EG | "Am"A^G AB c2 [e2c2E2A,2] | "G"DE GB AG EG | "Am"AB AG E2 [A2E2A,2] | 
"G"DE GB AG EG | "Am"A^G AB cd ed | "G"ed cB "D"AB dB |1 G2 [GG,][GG,] [G4G,4] :|2 G2 [GG,][GG,] [G2G,2] de | 
|: "Bm"fd Bd f2 ef | "C"ge ce g2 [e2e2] | "G"[g2d2] de dB AG | "Em"GA BG "C"[c2E2G,2] GE | 
"G"DE GB AG EG | "Am"A^G AB cd ed | "G"ed cB "D"AB dB |1 [G2G,2] [GG,][GG,] [G2G,2] de :|2 [G2G,2] [GG,][GG,] [G4G,4] | 


